X: 26439
T: Merry Wives, The
R: hornpipe
M: 4/4
K: Cmajor
cA|GEcE GcEc|GcEc d2 cA|GEcE GcEc|(3efe d^c d2 =cA|
GEcE GcEc|GcEc d2 cA|GEcE GcEc|(3efe d^c d2||
ed|cdef gfge|abaf g2 ed|cdef gfge|a^gec d2 ed|
cdef gfge|abaf g2 ge|cdef g2 bg|(3agf ge d2||

